boxicons/svg/regular/bx-bible.svg

<svg xmlns="http://www.w3.org/2000/svg" width="24" height="24" viewBox="0 0 24 24"><path d="M6 22h15v-2H6.012C5.55 19.988 5 19.805 5 19s.55-.988 1.012-1H21V4c0-1.103-.897-2-2-2H6c-1.206 0-3 .799-3 3v14c0 2.201 1.794 3 3 3zM5 8V5c0-.805.55-.988 1-1h13v12H5V8z"/><path d="M11 14h2v-4h2V8h-2V6h-2v2H9v2h2z"/></svg>

<svg xmlns="http://www.w3.org/2000/svg" width="24" height="24" viewBox="0 0 24 24"><path d="M6,22h15v-2H6.012C5.55,19.988,5,19.805,5,19s0.55-0.988,1.012-1H19h1h1v-1v-2V4c0-1.103-0.897-2-2-2H6 C4.794,2,3,2.799,3,5v3v6v3v2C3,21.201,4.794,22,6,22z M5,8V5c0-0.805,0.55-0.988,1-1h13v11v1H5v-2V8z"/><path d="M11 14L13 14 13 10 15 10 15 8 13 8 13 6 11 6 11 8 9 8 9 10 11 10z"/></svg>
